src/lib/packages/icons/src/assets/filled/user-check-bottom.svg

<svg width="24" height="24" viewBox="0 0 24 24" fill="none" xmlns="http://www.w3.org/2000/svg">
<path d="M14 19C14 19.736 14.1789 20.434 14.4969 21.052C14.6019 21.257 14.471 21.5 14.241 21.5H11H7C4.71 21.5 3.5 20.3 3.5 18.02C3.5 15.47 4.94 12.5 9 12.5H11H13C15.002 12.5 16.369 13.224 17.235 14.26C17.37 14.422 17.277 14.6611 17.077 14.7271C15.284 15.3181 14 17.004 14 19ZM11.009 10.5C13.215 10.5 15.009 8.706 15.009 6.5C15.009 4.294 13.215 2.5 11.009 2.5C8.80303 2.5 7.00903 4.294 7.00903 6.5C7.00903 8.706 8.80303 10.5 11.009 10.5ZM21.53 17.47C21.237 17.177 20.762 17.177 20.469 17.47L18.332 19.606L17.5291 18.803C17.2361 18.51 16.761 18.51 16.468 18.803C16.175 19.096 16.175 19.571 16.468 19.864L17.801 21.197C17.947 21.343 18.1391 21.417 18.3311 21.417C18.5231 21.417 18.715 21.344 18.861 21.197L21.528 18.53C21.823 18.237 21.823 17.763 21.53 17.47Z" fill="currentColor"/>
</svg>

<svg xmlns="http://www.w3.org/2000/svg" width="24" height="24" fill="none"><path fill="currentColor" d="M14 19c0 .736.179 1.434.497 2.052.105.205-.026.448-.256.448H7c-2.29 0-3.5-1.2-3.5-3.48 0-2.55 1.44-5.52 5.5-5.52h4c2.002 0 3.369.724 4.235 1.76.135.162.042.401-.158.467A4.487 4.487 0 0 0 14 19Zm-2.991-8.5c2.206 0 4-1.794 4-4s-1.794-4-4-4-4 1.794-4 4 1.794 4 4 4Zm10.521 6.97a.75.75 0 0 0-1.061 0l-2.137 2.136-.803-.803a.75.75 0 0 0-1.061 1.061l1.333 1.333a.748.748 0 0 0 1.06 0l2.667-2.667a.747.747 0 0 0 .002-1.06Z"/></svg>
